X:1
T: The Jolly Plumber
C:
R:Reel
Q: 232
K:Am
M:4/4
L:1/8
dc|:A2 Gc AG FD|A2 Gc Ad dc|((3ABc) Gc AG FD|Ad de fd cA|
A2 Gc AG FD|A2 Gc Ad dc|((3ABc) Gc AG FD|Ad de fd cA|
d2 gg ag ge|dg ge fd cA|d2 gg ag ge|d2 de fd cA|
d2 gg ag ge|dg ge f2 fg|af ge fd ec|1df ec dc ag:|2df ec A2||
